X:26
T:Captain O'Kane
R:carolan
C:Turlough O'Carolan (1670-1738)
H:Also played with single parts
H:Original in O'Neill's has d sharps in bars 5 & 6 of 2nd part
Z:id:hn-carolan-26
M:3/4
L:1/8
K:Em
ED | B,2E2F2 | G4 FE | FGAGFE | D2E2F2 | G2B2G2 | BAGFED | B,2E2E2 | E4 ED |
B,2E2F2 | G4 FE | FGAGFE | D2E2F2 | G2B2G2 | BAGFED | B,2E2E2 | E4 :|
|: EF | G2B2B2 | B4 AG | F2A2A2 | A4 dc | B3ed2 | e3fg2 | B2e2d2 | e4ef |
g2f2e2 | d3cB2 | A2F2d2 | D2E2F2 | G2B2G2 | BAGFED | B,2E2E2 | E4 :|
<end>
<start>
